client/public/img/game/shared/obstacles/grenade_box.svg

<?xml version="1.0" encoding="UTF-8" standalone="no"?>
<svg
   width="91.797"
   height="91.797"
   viewBox="0 0 24.288 24.288"
   xml:space="preserve"
   version="1.1"
   id="svg7"
   sodipodi:docname="grenade_box.svg"
   inkscape:version="1.4 (1:1.4+202410161351+e7c3feb100)"
   xmlns:inkscape="http://www.inkscape.org/namespaces/inkscape"
   xmlns:sodipodi="http://sodipodi.sourceforge.net/DTD/sodipodi-0.dtd"
   xmlns="http://www.w3.org/2000/svg"
   xmlns:svg="http://www.w3.org/2000/svg"><defs
   id="defs7" /><sodipodi:namedview
   id="namedview7"
   pagecolor="#505050"
   bordercolor="#ffffff"
   borderopacity="1"
   inkscape:showpageshadow="0"
   inkscape:pageopacity="0"
   inkscape:pagecheckerboard="1"
   inkscape:deskcolor="#505050"
   inkscape:zoom="12.9416"
   inkscape:cx="45.898499"
   inkscape:cy="45.898499"
   inkscape:window-width="2560"
   inkscape:window-height="1368"
   inkscape:window-x="0"
   inkscape:window-y="0"
   inkscape:window-maximized="1"
   inkscape:current-layer="svg7" />
    <rect
   ry="0"
   rx="0"
   y=".695"
   x=".695"
   height="22.899"
   width="22.899"
   style="fill:#af7a53;fill-opacity:1;fill-rule:nonzero;stroke:none;stroke-width:1.38907;stroke-linecap:round;stroke-linejoin:round;stroke-miterlimit:4;stroke-dasharray:none;stroke-dashoffset:0;stroke-opacity:1;paint-order:normal"
   id="rect1" />
    <path
   d="M4.445 1.086v22.152"
   style="fill:none;stroke:#342318;stroke-width:1.98438;stroke-linecap:round;stroke-linejoin:round;stroke-miterlimit:4;stroke-dasharray:none;stroke-opacity:1;paint-order:normal"
   id="path1" />
    <rect
   ry="0"
   rx="0"
   y=".992"
   x=".992"
   height="22.303"
   width="22.303"
   style="fill:none;fill-opacity:1;fill-rule:nonzero;stroke:#342318;stroke-width:1.98438;stroke-linecap:round;stroke-linejoin:round;stroke-miterlimit:4;stroke-dasharray:none;stroke-dashoffset:0;stroke-opacity:1;paint-order:normal"
   id="rect2" />
    <path
   d="M19.678.992V23.23"
   style="fill:none;stroke:#342318;stroke-width:1.98438;stroke-linecap:round;stroke-linejoin:round;stroke-miterlimit:4;stroke-dasharray:none;stroke-opacity:1;paint-order:normal"
   id="path2" />
    <path
   d="M5.11 4.498h14.152M5.086 19.732h14.108"
   style="fill:none;stroke:#342318;stroke-width:1.984375;stroke-linecap:round;stroke-linejoin:round;stroke-miterlimit:4;stroke-dasharray:none;stroke-opacity:1;paint-order:normal"
   id="path3" />
    <g
   transform="translate(.288 .383)"
   id="g7">
        <path
   style="fill:#e2cec0;fill-opacity:1;fill-rule:evenodd;stroke:none;stroke-width:0;stroke-linecap:round;stroke-linejoin:round;stroke-dasharray:none;stroke-opacity:1"
   transform="matrix(.86686 -.49856 .50144 .8652 0 0)"
   d="M3.824 15.001h1.555v.635H3.824z"
   id="path4" />
        <path
   style="fill:#e2cec0;fill-opacity:1;fill-rule:evenodd;stroke:none;stroke-width:0;stroke-linecap:round;stroke-linejoin:round;stroke-dasharray:none;stroke-opacity:1"
   d="m10.729 10.774-.505.29-.412 1.065.542 2.686-.858.141-.667-3.178.856-1.756-.095-.693 1.262-.726.672.608v.24l.481.561z"
   id="path5" />
        <ellipse
   style="fill:#e2cec0;fill-opacity:1;fill-rule:evenodd;stroke:none;stroke-width:0;stroke-linecap:round;stroke-linejoin:round;stroke-dasharray:none;stroke-opacity:1"
   cx="4.667"
   cy="17.817"
   transform="matrix(.86686 -.49856 .50144 .8652 0 0)"
   rx="2.494"
   ry="2.489"
   id="ellipse5" />
        <path
   style="fill:none;fill-opacity:.697324;fill-rule:evenodd;stroke:#af7a53;stroke-width:.318391;stroke-linecap:round;stroke-linejoin:round;stroke-dasharray:none;stroke-opacity:1"
   d="m10.833 14.338 4.294-2.47"
   id="path6" />
        <ellipse
   style="fill:none;fill-opacity:1;fill-rule:evenodd;stroke:#e2cec0;stroke-width:.53636;stroke-linecap:round;stroke-linejoin:round;stroke-dasharray:none;stroke-opacity:1"
   cx="2.775"
   cy="14.506"
   transform="matrix(.86686 -.49856 .50144 .8652 0 0)"
   rx="1.176"
   ry="1.173"
   id="ellipse6" />
        <ellipse
   style="fill:#e2cec0;fill-opacity:1;fill-rule:evenodd;stroke:none;stroke-width:0;stroke-linecap:round;stroke-linejoin:round;stroke-dasharray:none;stroke-opacity:1"
   cx="5.588"
   cy="13.145"
   transform="matrix(.86686 -.49856 .50144 .8652 0 0)"
   rx=".642"
   ry=".641"
   id="ellipse7" />
    </g>
    <g
   id="path7"><path
     style="fill:#342418;stroke-linecap:round;stroke-linejoin:round;paint-order:stroke fill markers"
     d="M 20.082031,3.0644531 13.96875,5.1875 a 1.0418992,1.0418992 0 0 0 -0.404297,1.7109375 l 0.326172,0.3339844 -0.04687,0.4824218 a 1.0418992,1.0418992 0 0 0 1.376953,1.0839844 L 21.335937,6.6777344 A 1.0418992,1.0418992 0 0 0 21.822266,5.0625 l -0.34961,-0.4609375 -0.0078,-0.5664063 A 1.0418992,1.0418992 0 0 0 20.082031,3.0644531 Z M 4.6210937,14.992188 A 1.0418992,1.0418992 0 0 0 3.109375,15.890625 l -0.013672,0.464844 -0.3808593,0.300781 a 1.0418992,1.0418992 0 0 0 0.1757812,1.746094 l 5.7714844,2.927734 A 1.0418992,1.0418992 0 0 0 10.162109,20.560547 L 10.25,19.990234 10.652344,19.591797 a 1.0418992,1.0418992 0 0 0 -0.259766,-1.667969 z"
     id="path8" /><path
     style="fill:#e2cec0;stroke-linecap:round;stroke-linejoin:round;paint-order:stroke fill markers"
     d="m 14.31,6.171 6.113,-2.122 0.012,0.91 0.559,0.734 -6.114,2.122 0.094,-0.965 z m -10.16,9.751 5.77,2.93 -0.646,0.64 -0.141,0.91 -5.771,-2.929 0.76,-0.601 z"
     id="path9" /></g>
</svg>

<svg width="91.797" height="91.797" viewBox="0 0 24.288 24.288" xml:space="preserve" xmlns="http://www.w3.org/2000/svg">
    <rect ry="0" rx="0" y=".695" x=".695" height="22.899" width="22.899" style="fill:#af7a53;fill-opacity:1;fill-rule:nonzero;stroke:none;stroke-width:1.38907;stroke-linecap:round;stroke-linejoin:round;stroke-miterlimit:4;stroke-dasharray:none;stroke-dashoffset:0;stroke-opacity:1;paint-order:normal"/>
    <path d="M4.445 1.086v22.152" style="fill:none;stroke:#342318;stroke-width:1.58750291;stroke-linecap:round;stroke-linejoin:round;stroke-miterlimit:4;stroke-dasharray:none;stroke-opacity:1;paint-order:normal"/>
    <rect ry="0" rx="0" y=".794" x=".794" height="22.7" width="22.7" style="fill:none;fill-opacity:1;fill-rule:nonzero;stroke:#342318;stroke-width:1.5875;stroke-linecap:round;stroke-linejoin:round;stroke-miterlimit:4;stroke-dasharray:none;stroke-dashoffset:0;stroke-opacity:1;paint-order:normal"/>
    <path d="M19.678.992V23.23M5.11 4.498h14.152M5.086 19.732h14.108" style="fill:none;stroke:#342318;stroke-width:1.58750291;stroke-linecap:round;stroke-linejoin:round;stroke-miterlimit:4;stroke-dasharray:none;stroke-opacity:1;paint-order:normal"/>
    <g transform="translate(.288 .383)">
        <path style="fill:#e2cec0;fill-opacity:1;fill-rule:evenodd;stroke:none;stroke-width:0;stroke-linecap:round;stroke-linejoin:round;stroke-dasharray:none;stroke-opacity:1" transform="matrix(.86686 -.49856 .50144 .8652 0 0)" d="M3.824 15.001h1.555v.635H3.824z"/>
        <path style="fill:#e2cec0;fill-opacity:1;fill-rule:evenodd;stroke:none;stroke-width:0;stroke-linecap:round;stroke-linejoin:round;stroke-dasharray:none;stroke-opacity:1" d="m10.729 10.774-.505.29-.412 1.065.542 2.686-.858.141-.667-3.178.856-1.756-.095-.693 1.262-.726.672.608v.24l.481.561z"/>
        <ellipse style="fill:#e2cec0;fill-opacity:1;fill-rule:evenodd;stroke:none;stroke-width:0;stroke-linecap:round;stroke-linejoin:round;stroke-dasharray:none;stroke-opacity:1" cx="4.667" cy="17.817" transform="matrix(.86686 -.49856 .50144 .8652 0 0)" rx="2.494" ry="2.489"/>
        <path style="fill:none;fill-opacity:.697324;fill-rule:evenodd;stroke:#af7a53;stroke-width:.318391;stroke-linecap:round;stroke-linejoin:round;stroke-dasharray:none;stroke-opacity:1" d="m10.833 14.338 4.294-2.47"/>
        <ellipse style="fill:none;fill-opacity:1;fill-rule:evenodd;stroke:#e2cec0;stroke-width:.53636;stroke-linecap:round;stroke-linejoin:round;stroke-dasharray:none;stroke-opacity:1" cx="2.775" cy="14.506" transform="matrix(.86686 -.49856 .50144 .8652 0 0)" rx="1.176" ry="1.173"/>
        <ellipse style="fill:#e2cec0;fill-opacity:1;fill-rule:evenodd;stroke:none;stroke-width:0;stroke-linecap:round;stroke-linejoin:round;stroke-dasharray:none;stroke-opacity:1" cx="5.588" cy="13.145" transform="matrix(.86686 -.49856 .50144 .8652 0 0)" rx=".642" ry=".641"/>
    </g>
    <path style="fill:#342418;stroke-linecap:round;stroke-linejoin:round;paint-order:stroke fill markers" d="m20.082 3.064-6.113 2.123a1.042 1.042 0 0 0-.405 1.711l.327.334-.047.483a1.042 1.042 0 0 0 1.377 1.084l6.115-2.121a1.042 1.042 0 0 0 .486-1.615l-.35-.461-.007-.567a1.042 1.042 0 0 0-1.383-.97ZM4.622 14.992a1.042 1.042 0 0 0-1.513.899l-.013.464-.381.301a1.042 1.042 0 0 0 .176 1.746l5.771 2.928a1.042 1.042 0 0 0 1.5-.77l.088-.57.402-.398a1.042 1.042 0 0 0-.26-1.668z"/>
    <path style="fill:#e2cec0;stroke-linecap:round;stroke-linejoin:round;paint-order:stroke fill markers" d="m14.31 6.171 6.113-2.122.012.91.559.734-6.114 2.122.094-.965zM4.15 15.922l5.77 2.93-.646.64-.141.91-5.771-2.929.76-.601z"/>
</svg>
